tox-frontend/public/cubicle-99.CUBE
#Created by: Adobe Photoshop Export Color Lookup Plugin
#Copyright: (C) Copyright 2017 RocketStock
TITLE "Cool"
#LUT size
LUT_3D_SIZE 32
#data domain
DOMAIN_MIN 0.0 0.0 0.0
DOMAIN_MAX 1.0 1.0 1.0
#LUT data points
0.000000 0.000000 0.120000
0.029533 0.000000 0.120000
0.059066 0.000000 0.120000
0.088599 0.000000 0.120000
0.118133 0.000000 0.120000
0.147666 0.000000 0.120000
0.177199 0.000000 0.120000
0.206732 0.000000 0.120000
0.236265 0.000000 0.120000
0.265798 0.000000 0.120000
0.295331 0.000000 0.120000
0.324864 0.000000 0.120000
0.354398 0.000000 0.120000
0.383931 0.000000 0.120000
0.413464 0.000000 0.120000
0.442997 0.000000 0.120000
0.472530 0.000000 0.120000
0.502063 0.000000 0.120000
0.531596 0.000000 0.120000
0.561129 0.000000 0.120000
0.590663 0.000000 0.120000
0.620196 0.000000 0.120000
0.649729 0.000000 0.120000
0.679262 0.000000 0.120000
0.708795 0.000000 0.120000
0.738328 0.000000 0.120000
0.767861 0.000000 0.120000
0.797394 0.000000 0.120000
0.826928 0.000000 0.120000
0.856461 0.000000 0.120000
0.885994 0.000000 0.120000
0.915527 0.000000 0.120000
0.000000 0.029533 0.120000
0.029533 0.029533 0.120000
0.059066 0.029533 0.120000
0.088599 0.029533 0.120000
0.118133 0.029533 0.120000
0.147666 0.029533 0.120000
0.177199 0.029533 0.120000
0.206732 0.029533 0.120000
0.236265 0.029533 0.120000
0.265798 0.029533 0.120000
0.295331 0.029533 0.120000
0.324864 0.029533 0.120000
0.354398 0.029533 0.120000
0.383931 0.029533 0.120000
0.413464 0.029533 0.120000
0.442997 0.029533 0.120000
0.472530 0.029533 0.120000
0.502063 0.029533 0.120000
0.531596 0.029533 0.120000
0.561129 0.029533 0.120000
0.590663 0.029533 0.120000
0.620196 0.029533 0.120000
0.649729 0.029533 0.120000
0.679262 0.029533 0.120000
0.708795 0.029533 0.120000
0.738328 0.029533 0.120000
0.767861 0.029533 0.120000
0.797394 0.029533 0.120000
0.826928 0.029533 0.120000
0.856461 0.029533 0.120000
0.885994 0.029533 0.120000
0.915527 0.029533 0.120000
0.000000 0.059066 0.120000
0.029533 0.059066 0.120000
0.059066 0.059066 0.120000
0.088599 0.059066 0.120000
0.118133 0.059066 0.120000
0.147666 0.059066 0.120000
0.177199 0.059066 0.120000
0.206732 0.059066 0.120000
0.236265 0.059066 0.120000
0.265798 0.059066 0.120000
0.295331 0.059066 0.120000
0.324864 0.059066 0.120000
0.354398 0.059066 0.120000
0.383931 0.059066 0.120000
0.413464 0.059066 0.120000
0.442997 0.059066 0.120000
0.472530 0.059066 0.120000
0.502063 0.059066 0.120000
0.531596 0.059066 0.120000
0.561129 0.059066 0.120000
0.590663 0.059066 0.120000
0.620196 0.059066 0.120000
0.649729 0.059066 0.120000
0.679262 0.059066 0.120000
0.708795 0.059066 0.120000
0.738328 0.059066 0.120000
0.767861 0.059066 0.120000
0.797394 0.059066 0.120000
0.826928 0.059066 0.120000
0.856461 0.059066 0.120000
0.885994 0.059066 0.120000
0.915527 0.059066 0.120000
0.000000 0.088599 0.120000
0.029533 0.088599 0.120000
0.059066 0.088599 0.120000
0.088599 0.088599 0.120000
0.118133 0.088599 0.120000
0.147666 0.088599 0.120000
0.177199 0.088599 0.120000
0.206732 0.088599 0.120000
0.236265 0.088599 0.120000
0.265798 0.088599 0.120000
0.295331 0.088599 0.120000
0.324864 0.088599 0.120000
0.354398 0.088599 0.120000
0.383931 0.088599 0.120000
0.413464 0.088599 0.120000
0.442997 0.088599 0.120000
0.472530 0.088599 0.120000
0.502063 0.088599 0.120000
0.531596 0.088599 0.120000
0.561129 0.088599 0.120000
0.590663 0.088599 0.120000
0.620196 0.088599 0.120000
0.649729 0.088599 0.120000
0.679262 0.088599 0.120000
0.708795 0.088599 0.120000
0.738328 0.088599 0.120000
0.767861 0.088599 0.120000
0.797394 0.088599 0.120000
0.826928 0.088599 0.120000
0.856461 0.088599 0.120000
0.885994 0.088599 0.120000
0.915527 0.088599 0.120000
0.000000 0.118133 0.120000
0.029533 0.118133 0.120000
0.059066 0.118133 0.120000
0.088599 0.118133 0.120000
0.118133 0.118133 0.120000
0.147666 0.118133 0.120000
0.177199 0.118133 0.120000
0.206732 0.118133 0.120000
0.236265 0.118133 0.120000
0.265798 0.118133 0.120000
0.295331 0.118133 0.120000
0.324864 0.118133 0.120000
0.354398 0.118133 0.120000
0.383931 0.118133 0.120000
0.413464 0.118133 0.120000
0.442997 0.118133 0.120000
0.472530 0.118133 0.120000
0.502063 0.118133 0.120000
0.531596 0.118133 0.120000
0.561129 0.118133 0.120000
0.590663 0.118133 0.120000
0.620196 0.118133 0.120000
0.649729 0.118133 0.120000
0.679262 0.118133 0.120000
0.708795 0.118133 0.120000
0.738328 0.118133 0.120000
0.767861 0.118133 0.120000
0.797394 0.118133 0.120000
0.826928 0.118133 0.120000
0.856461 0.118133 0.120000
0.885994 0.118133 0.120000
0.915527 0.118133 0.120000
0.000000 0.147666 0.120000
0.029533 0.147666 0.120000
0.059066 0.147666 0.120000
0.088599 0.147666 0.120000
0.118133 0.147666 0.120000
0.147666 0.147666 0.120000
0.177199 0.147666 0.120000
0.206732 0.147666 0.120000
0.236265 0.147666 0.120000
0.265798 0.147666 0.120000
0.295331 0.147666 0.120000
0.324864 0.147666 0.120000
0.354398 0.147666 0.120000
0.383931 0.147666 0.120000
0.413464 0.147666 0.120000
0.442997 0.147666 0.120000
0.472530 0.147666 0.120000
0.502063 0.147666 0.120000
0.531596 0.147666 0.120000
0.561129 0.147666 0.120000
0.590663 0.147666 0.120000
0.620196 0.147666 0.120000
0.649729 0.147666 0.120000
0.679262 0.147666 0.120000
0.708795 0.147666 0.120000
0.738328 0.147666 0.120000
0.767861 0.147666 0.120000
0.797394 0.147666 0.120000
0.826928 0.147666 0.120000
0.856461 0.147666 0.120000
0.885994 0.147666 0.120000
0.915527 0.147666 0.120000
0.000000 0.177199 0.120000
0.029533 0.177199 0.120000
0.059066 0.177199 0.120000
0.088599 0.177199 0.120000
0.118133 0.177199 0.120000
0.147666 0.177199 0.120000
0.177199 0.177199 0.120000
0.206732 0.177199 0.120000
0.236265 0.177199 0.120000
0.265798 0.177199 0.120000
0.295331 0.177199 0.120000
0.324864 0.177199 0.120000
0.354398 0.177199 0.120000
0.383931 0.177199 0.120000
0.413464 0.177199 0.120000
0.442997 0.177199 0.120000
0.472530 0.177199 0.120000
0.502063 0.177199 0.120000
0.531596 0.177199 0.120000
0.561129 0.177199 0.120000
0.590663 0.177199 0.120000
0.620196 0.177199 0.120000
0.649729 0.177199 0.120000
0.679262 0.177199 0.120000
0.708795 0.177199 0.120000
0.738328 0.177199 0.120000
0.767861 0.177199 0.120000
0.797394 0.177199 0.120000
0.826928 0.177199 0.120000
0.856461 0.177199 0.120000
0.885994 0.177199 0.120000
0.915527 0.177199 0.120000
0.000000 0.206732 0.120000
0.029533 0.206732 0.120000
0.059066 0.206732 0.120000
0.088599 0.206732 0.120000
0.118133 0.206732 0.120000
0.147666 0.206732 0.120000
0.177199 0.206732 0.120000
0.206732 0.206732 0.120000
0.236265 0.206732 0.120000
0.265798 0.206732 0.120000
0.295331 0.206732 0.120000
0.324864 0.206732 0.120000
0.354398 0.206732 0.120000
0.383931 0.206732 0.120000
0.413464 0.206732 0.120000
0.442997 0.206732 0.120000
0.472530 0.206732 0.120000
0.502063 0.206732 0.120000
0.531596 0.206732 0.120000
0.561129 0.206732 0.120000
0.590663 0.206732 0.120000
0.620196 0.206732 0.120000
0.649729 0.206732 0.120000
0.679262 0.206732 0.120000
0.708795 0.206732 0.120000
0.738328 0.206732 0.120000
0.767861 0.206732 0.120000
0.797394 0.206732 0.120000
0.826928 0.206732 0.120000
0.856461 0.206732 0.120000
0.885994 0.206732 0.120000
0.915527 0.206732 0.120000
0.000000 0.236265 0.120000
0.029533 0.236265 0.120000
0.059066 0.236265 0.120000
0.088599 0.236265 0.120000
0.118133 0.236265 0.120000
0.147666 0.236265 0.120000
0.177199 0.236265 0.120000
0.206732 0.236265 0.120000
0.236265 0.236265 0.120000
0.265798 0.236265 0.120000
0.295331 0.236265 0.120000
0.324864 0.236265 0.120000
0.354398 0.236265 0.120000
0.383931 0.236265 0.120000
0.413464 0.236265 0.120000
0.442997 0.236265 0.120000
0.472530 0.236265 0.120000
0.502063 0.236265 0.120000
0.531596 0.236265 0.120000
0.561129 0.236265 0.120000
0.590663 0.236265 0.120000
0.620196 0.236265 0.120000
0.649729 0.236265 0.120000
0.679262 0.236265 0.120000
0.708795 0.236265 0.120000
0.738328 0.236265 0.120000
0.767861 0.236265 0.120000
0.797394 0.236265 0.120000
0.826928 0.236265 0.120000
0.856461 0.236265 0.120000
0.885994 0.236265 0.120000
0.915527 0.236265 0.120000
0.000000 0.265798 0.120000
0.029533 0.265798 0.120000
0.059066 0.265798 0.120000
0.088599 0.265798 0.120000
0.118133 0.265798 0.120000
0.147666 0.265798 0.120000
0.177199 0.265798 0.120000
0.206732 0.265798 0.120000
0.236265 0.265798 0.120000
0.265798 0.265798 0.120000
0.295331 0.265798 0.120000
0.324864 0.265798 0.120000
0.354398 0.265798 0.120000
0.383931 0.265798 0.120000
0.413464 0.265798 0.120000
0.442997 0.265798 0.120000
0.472530 0.265798 0.120000
0.502063 0.265798 0.120000
0.531596 0.265798 0.120000
0.561129 0.265798 0.120000
0.590663 0.265798 0.120000
0.620196 0.265798 0.120000
0.649729 0.265798 0.120000
0.679262 0.265798 0.120000
0.708795 0.265798 0.120000
0.738328 0.265798 0.120000
0.767861 0.265798 0.120000
0.797394 0.265798 0.120000
0.826928 0.265798 0.120000
0.856461 0.265798 0.120000
0.885994 0.265798 0.120000
0.915527 0.265798 0.120000
0.000000 0.295331 0.120000
0.029533 0.295331 0.120000
0.059066 0.295331 0.120000
0.088599 0.295331 0.120000
0.118133 0.295331 0.120000
0.147666 0.295331 0.120000
0.177199 0.295331 0.120000
0.206732 0.295331 0.120000
0.236265 0.295331 0.120000
0.265798 0.295331 0.120000
0.295331 0.295331 0.120000
0.324864 0.295331 0.120000
0.354398 0.295331 0.120000
0.383931 0.295331 0.120000
0.413464 0.295331 0.120000
0.442997 0.295331 0.120000
0.472530 0.295331 0.120000
0.502063 0.295331 0.120000
0.531596 0.295331 0.120000
0.561129 0.295331 0.120000
0.590663 0.295331 0.120000
0.620196 0.295331 0.120000
0.649729 0.295331 0.120000
0.679262 0.295331 0.120000
0.708795 0.295331 0.120000
0.738328 0.295331 0.120000
0.767861 0.295331 0.120000
0.797394 0.295331 0.120000
0.826928 0.295331 0.120000
0.856461 0.295331 0.120000
0.885994 0.295331 0.120000
0.915527 0.295331 0.120000
0.000000 0.324864 0.120000
0.029533 0.324864 0.120000
0.059066 0.324864 0.120000
0.088599 0.324864 0.120000
0.118133 0.324864 0.120000
0.147666 0.324864 0.120000
0.177199 0.324864 0.120000
0.206732 0.324864 0.120000
0.236265 0.324864 0.120000
0.265798 0.324864 0.120000
0.295331 0.324864 0.120000
0.324864 0.324864 0.120000
0.354398 0.324864 0.120000
0.383931 0.324864 0.120000
0.413464 0.324864 0.120000
0.442997 0.324864 0.120000
0.472530 0.324864 0.120000
0.502063 0.324864 0.120000
0.531596 0.324864 0.120000
0.561129 0.324864 0.120000
0.590663 0.324864 0.120000
0.620196 0.324864 0.120000
0.649729 0.324864 0.120000
0.679262 0.324864 0.120000
0.708795 0.324864 0.120000
0.738328 0.324864 0.120000
0.767861 0.324864 0.120000
0.797394 0.324864 0.120000
0.826928 0.324864 0.120000
0.856461 0.324864 0.120000
0.885994 0.324864 0.120000
0.915527 0.324864 0.120000
0.000000 0.354398 0.120000
0.029533 0.354398 0.120000
0.059066 0.354398 0.120000
0.088599 0.354398 0.120000
0.118133 0.354398 0.120000
0.147666 0.354398 0.120000
0.177199 0.354398 0.120000
0.206732 0.354398 0.120000
0.236265 0.354398 0.120000
0.265798 0.354398 0.120000
0.295331 0.354398 0.120000
0.324864 0.354398 0.120000
0.354398 0.354398 0.120000
0.383931 0.354398 0.120000
0.413464 0.354398 0.120000
0.442997 0.354398 0.120000
0.472530 0.354398 0.120000
0.502063 0.354398 0.120000
0.531596 0.354398 0.120000
0.561129 0.354398 0.120000
0.590663 0.354398 0.120000
0.620196 0.354398 0.120000
0.649729 0.354398 0.120000
0.679262 0.354398 0.120000
0.708795 0.354398 0.120000
0.738328 0.354398 0.120000
0.767861 0.354398 0.120000
0.797394 0.354398 0.120000
0.826928 0.354398 0.120000
0.856461 0.354398 0.120000
0.885994 0.354398 0.120000
0.915527 0.354398 0.120000
0.000000 0.383931 0.120000
0.029533 0.383931 0.120000
0.059066 0.383931 0.120000
0.088599 0.383931 0.120000
0.118133 0.383931 0.120000
0.147666 0.383931 0.120000
0.177199 0.383931 0.120000
0.206732 0.383931 0.120000
0.236265 0.383931 0.120000
0.265798 0.383931 0.120000
0.295331 0.383931 0.120000
0.324864 0.383931 0.120000
0.354398 0.383931 0.120000
0.383931 0.383931 0.120000
0.413464 0.383931 0.120000
0.442997 0.383931 0.120000
0.472530 0.383931 0.120000
0.502063 0.383931 0.120000
0.531596 0.383931 0.120000
0.561129 0.383931 0.120000
0.590663 0.383931 0.120000
0.620196 0.383931 0.120000
0.649729 0.383931 0.120000
0.679262 0.383931 0.120000
0.708795 0.383931 0.120000
0.738328 0.383931 0.120000
0.767861 0.383931 0.120000
0.797394 0.383931 0.120000
0.826928 0.383931 0.120000
0.856461 0.383931 0.120000
0.885994 0.383931 0.120000
0.915527 0.383931 0.120000
0.000000 0.413464 0.120000
0.029533 0.413464 0.120000
0.059066 0.413464 0.120000
0.088599 0.413464 0.120000
0.118133 0.413464 0.120000
0.147666 0.413464 0.120000
0.177199 0.413464 0.120000
0.206732 0.413464 0.120000
0.236265 0.413464 0.120000
0.265798 0.413464 0.120000
0.295331 0.413464 0.120000
0.324864 0.413464 0.120000
0.354398 0.413464 0.120000
0.383931 0.413464 0.120000
0.413464 0.413464 0.120000
0.442997 0.413464 0.120000
0.472530 0.413464 0.120000
0.502063 0.413464 0.120000
0.531596 0.413464 0.120000
0.561129 0.413464 0.120000
0.590663 0.413464 0.120000
0.620196 0.413464 0.120000
0.649729 0.413464 0.120000
0.679262 0.413464 0.120000
0.708795 0.413464 0.120000
0.738328 0.413464 0.120000
0.767861 0.413464 0.120000
0.797394 0.413464 0.120000
0.826928 0.413464 0.120000
0.856461 0.413464 0.120000
0.885994 0.413464 0.120000
0.915527 0.413464 0.120000
0.000000 0.442997 0.120000
0.029533 0.442997 0.120000
0.059066 0.442997 0.120000
0.088599 0.442997 0.120000
0.118133 0.442997 0.120000
0.147666 0.442997 0.120000
0.177199 0.442997 0.120000
0.206732 0.442997 0.120000
0.236265 0.442997 0.120000
0.265798 0.442997 0.120000
0.295331 0.442997 0.120000
0.324864 0.442997 0.120000
0.354398 0.442997 0.120000
0.383931 0.442997 0.120000
0.413464 0.442997 0.120000
0.442997 0.442997 0.120000
0.472530 0.442997 0.120000
0.502063 0.442997 0.120000
0.531596 0.442997 0.120000
0.561129 0.442997 0.120000
0.590663 0.442997 0.120000
0.620196 0.442997 0.120000
0.649729 0.442997 0.120000
0.679262 0.442997 0.120000
0.708795 0.442997 0.120000
0.738328 0.442997 0.120000
0.767861 0.442997 0.120000
0.797394 0.442997 0.120000
0.826928 0.442997 0.120000
0.856461 0.442997 0.120000
0.885994 0.442997 0.120000
0.915527 0.442997 0.120000
0.000000 0.472530 0.120000
0.029533 0.472530 0.120000
0.059066 0.472530 0.120000
0.088599 0.472530 0.120000
0.118133 0.472530 0.120000
0.147666 0.472530 0.120000
0.177199 0.472530 0.120000
0.206732 0.472530 0.120000
0.236265 0.472530 0.120000
0.265798 0.472530 0.120000
0.295331 0.472530 0.120000
0.324864 0.472530 0.120000
0.354398 0.472530 0.120000
0.383931 0.472530 0.120000
0.413464 0.472530 0.120000
0.442997 0.472530 0.120000
0.472530 0.472530 0.120000
0.502063 0.472530 0.120000
0.531596 0.472530 0.120000
0.561129 0.472530 0.120000
0.590663 0.472530 0.120000
0.620196 0.472530 0.120000
0.649729 0.472530 0.120000
0.679262 0.472530 0.120000
0.708795 0.472530 0.120000
0.738328 0.472530 0.120000
0.767861 0.472530 0.120000
0.797394 0.472530 0.120000
0.826928 0.472530 0.120000
0.856461 0.472530 0.120000
0.885994 0.472530 0.120000
0.915527 0.472530 0.120000
0.000000 0.502063 0.120000
0.029533 0.502063 0.120000
0.059066 0.502063 0.120000
0.088599 0.502063 0.120000
0.118133 0.502063 0.120000
0.147666 0.502063 0.120000
0.177199 0.502063 0.120000
0.206732 0.502063 0.120000
0.236265 0.502063 0.120000
0.265798 0.502063 0.120000
0.295331 0.502063 0.120000
0.324864 0.502063 0.120000
0.354398 0.502063 0.120000
0.383931 0.502063 0.120000
0.413464 0.502063 0.120000
0.442997 0.502063 0.120000
0.472530 0.502063 0.120000
0.502063 0.502063 0.120000
0.531596 0.502063 0.120000
0.561129 0.502063 0.120000
0.590663 0.502063 0.120000
0.620196 0.502063 0.120000
0.649729 0.502063 0.120000
0.679262 0.502063 0.120000
0.708795 0.502063 0.120000
0.738328 0.502063 0.120000
0.767861 0.502063 0.120000
0.797394 0.502063 0.120000
0.826928 0.502063 0.120000
0.856461 0.502063 0.120000
0.885994 0.502063 0.120000
0.915527 0.502063 0.120000
0.000000 0.531596 0.120000
0.029533 0.531596 0.120000
0.059066 0.531596 0.120000
0.088599 0.531596 0.120000
0.118133 0.531596 0.120000
0.147666 0.531596 0.120000
0.177199 0.531596 0.120000
0.206732 0.531596 0.120000
0.236265 0.531596 0.120000
0.265798 0.531596 0.120000
0.295331 0.531596 0.120000
0.324864 0.531596 0.120000
0.354398 0.531596 0.120000
0.383931 0.531596 0.120000
0.413464 0.531596 0.120000
0.442997 0.531596 0.120000
0.472530 0.531596 0.120000
0.502063 0.531596 0.120000
0.531596 0.531596 0.120000
0.561129 0.531596 0.120000
0.590663 0.531596 0.120000
0.620196 0.531596 0.120000
0.649729 0.531596 0.120000
0.679262 0.531596 0.120000
0.708795 0.531596 0.120000
0.738328 0.531596 0.120000
0.767861 0.531596 0.120000
0.797394 0.531596 0.120000
0.826928 0.531596 0.120000
0.856461 0.531596 0.120000
0.885994 0.531596 0.120000
0.915527 0.531596 0.120000
0.000000 0.561129 0.120000
0.029533 0.561129 0.120000
0.059066 0.561129 0.120000
0.088599 0.561129 0.120000
0.118133 0.561129 0.120000
0.147666 0.561129 0.120000
0.177199 0.561129 0.120000
0.206732 0.561129 0.120000
0.236265 0.561129 0.120000
0.265798 0.561129 0.120000
0.295331 0.561129 0.120000
0.324864 0.561129 0.120000
0.354398 0.561129 0.120000
0.383931 0.561129 0.120000
0.413464 0.561129 0.120000
0.442997 0.561129 0.120000
0.472530 0.561129 0.120000
0.502063 0.561129 0.120000
0.531596 0.561129 0.120000
0.561129 0.561129 0.120000
0.590663 0.561129 0.120000
0.620196 0.561129 0.120000
0.649729 0.561129 0.120000
0.679262 0.561129 0.120000
0.708795 0.561129 0.120000
0.738328 0.561129 0.120000
0.767861 0.561129 0.120000
0.797394 0.561129 0.120000
0.826928 0.561129 0.120000
0.856461 0.561129 0.120000
0.885994 0.561129 0.120000
0.915527 0.561129 0.120000
0.000000 0.590663 0.120000
0.029533 0.590663 0.120000
0.059066 0.590663 0.120000
0.088599 0.590663 0.120000
0.118133 0.590663 0.120000
0.147666 0.590663 0.120000
0.177199 0.590663 0.120000
0.206732 0.590663 0.120000
0.236265 0.590663 0.120000
0.265798 0.590663 0.120000
0.295331 0.590663 0.120000
0.324864 0.590663 0.120000
0.354398 0.590663 0.120000
0.383931 0.590663 0.120000
0.413464 0.590663 0.120000
0.442997 0.590663 0.120000
0.472530 0.590663 0.120000
0.502063 0.590663 0.120000
0.531596 0.590663 0.120000
0.561129 0.590663 0.120000
0.590663 0.590663 0.120000
0.620196 0.590663 0.120000
0.649729 0.590663 0.120000
0.679262 0.590663 0.120000
0.708795 0.590663 0.120000
0.738328 0.590663 0.120000
0.767861 0.590663 0.120000
0.797394 0.590663 0.120000
0.826928 0.590663 0.120000
0.856461 0.590663 0.120000
0.885994 0.590663 0.120000
0.915527 0.590663 0.120000
0.000000 0.620196 0.120000
0.029533 0.620196 0.120000
0.059066 0.620196 0.120000
0.088599 0.620196 0.120000
0.118133 0.620196 0.120000
0.147666 0.620196 0.120000
0.177199 0.620196 0.120000
0.206732 0.620196 0.120000
0.236265 0.620196 0.120000
0.265798 0.620196 0.120000
0.295331 0.620196 0.120000
0.324864 0.620196 0.120000
0.354398 0.620196 0.120000
0.383931 0.620196 0.120000
0.413464 0.620196 0.120000
0.442997 0.620196 0.120000
0.472530 0.620196 0.120000
0.502063 0.620196 0.120000
0.531596 0.620196 0.120000
0.561129 0.620196 0.120000
0.590663 0.620196 0.120000
0.620196 0.620196 0.120000
0.649729 0.620196 0.120000
0.679262 0.620196 0.120000
0.708795 0.620196 0.120000
0.738328 0.620196 0.120000
0.767861 0.620196 0.120000
0.797394 0.620196 0.120000
0.826928 0.620196 0.120000
0.856461 0.620196 0.120000
0.885994 0.620196 0.120000
0.915527 0.620196 0.120000
0.000000 0.649729 0.120000
0.029533 0.649729 0.120000
0.059066 0.649729 0.120000
0.088599 0.649729 0.120000
0.118133 0.649729 0.120000
0.147666 0.649729 0.120000
0.177199 0.649729 0.120000
0.206732 0.649729 0.120000
0.236265 0.649729 0.120000
0.265798 0.649729 0.120000
0.295331 0.649729 0.120000
0.324864 0.649729 0.120000
0.354398 0.649729 0.120000
0.383931 0.649729 0.120000
0.413464 0.649729 0.120000
0.442997 0.649729 0.120000
0.472530 0.649729 0.120000
0.502063 0.649729 0.120000
0.531596 0.649729 0.120000
0.561129 0.649729 0.120000
0.590663 0.649729 0.120000
0.620196 0.649729 0.120000
0.649729 0.649729 0.120000
0.679262 0.649729 0.120000
0.708795 0.649729 0.120000
0.738328 0.649729 0.120000
0.767861 0.649729 0.120000
0.797394 0.649729 0.120000
0.826928 0.649729 0.120000
0.856461 0.649729 0.120000
0.885994 0.649729 0.120000
0.915527 0.649729 0.120000
0.000000 0.679262 0.120000
0.029533 0.679262 0.120000
0.059066 0.679262 0.120000
0.088599 0.679262 0.120000
0.118133 0.679262 0.120000
0.147666 0.679262 0.120000
0.177199 0.679262 0.120000
0.206732 0.679262 0.120000
0.236265 0.679262 0.120000
0.265798 0.679262 0.120000
0.295331 0.679262 0.120000
0.324864 0.679262 0.120000
0.354398 0.679262 0.120000
0.383931 0.679262 0.120000
0.413464 0.679262 0.120000
0.442997 0.679262 0.120000
0.472530 0.679262 0.120000
0.502063 0.679262 0.120000
0.531596 0.679262 0.120000
0.561129 0.679262 0.120000
0.590663 0.679262 0.120000
0.620196 0.679262 0.120000
0.649729 0.679262 0.120000
0.679262 0.679262 0.120000
0.708795 0.679262 0.120000
0.738328 0.679262 0.120000
0.767861 0.679262 0.120000
0.797394 0.679262 0.120000
0.826928 0.679262 0.120000
0.856461 0.679262 0.120000
0.885994 0.679262 0.120000
0.915527 0.679262 0.120000
0.000000 0.708795 0.120000
0.029533 0.708795 0.120000
0.059066 0.708795 0.120000
0.088599 0.708795 0.120000
0.118133 0.708795 0.120000
0.147666 0.708795 0.120000
0.177199 0.708795 0.120000
0.206732 0.708795 0.120000
0.236265 0.708795 0.120000
0.265798 0.708795 0.120000
0.295331 0.708795 0.120000
0.324864 0.708795 0.120000
0.354398 0.708795 0.120000
0.383931 0.708795 0.120000
0.413464 0.708795 0.120000
0.442997 0.708795 0.120000
0.472530 0.708795 0.120000
0.502063 0.708795 0.120000
0.531596 0.708795 0.120000
0.561129 0.708795 0.120000
0.590663 0.708795 0.120000
0.620196 0.708795 0.120000
0.649729 0.708795 0.120000
0.679262 0.708795 0.120000
0.708795 0.708795 0.120000
0.738328 0.708795 0.120000
0.767861 0.708795 0.120000
0.797394 0.708795 0.120000
0.826928 0.708795 0.120000
0.856461 0.708795 0.120000
0.885994 0.708795 0.120000
0.915527 0.708795 0.120000
0.000000 0.738328 0.120000
0.029533 0.738328 0.120000
0.059066 0.738328 0.120000
0.088599 0.738328 0.120000
0.118133 0.738328 0.120000
0.147666 0.738328 0.120000
0.177199 0.738328 0.120000
0.206732 0.738328 0.120000
0.236265 0.738328 0.120000
0.265798 0.738328 0.120000
0.295331 0.738328 0.120000
0.324864 0.738328 0.120000
0.354398 0.738328 0.120000
0.383931 0.738328 0.120000
0.413464 0.738328 0.120000
0.442997 0.738328 0.120000
0.472530 0.738328 0.120000
0.502063 0.738328 0.120000
0.531596 0.738328 0.120000
0.561129 0.738328 0.120000
0.590663 0.738328 0.120000
0.620196 0.738328 0.120000
0.649729 0.738328 0.120000
0.679262 0.738328 0.120000
0.708795 0.738328 0.120000
0.738328 0.738328 0.120000
0.767861 0.738328 0.120000
0.797394 0.738328 0.120000
0.826928 0.738328 0.120000
0.856461 0.738328 0.120000
0.885994 0.738328 0.120000
0.915527 0.738328 0.120000
0.000000 0.767861 0.120000
0.029533 0.767861 0.120000
0.059066 0.767861 0.120000
0.088599 0.767861 0.120000
0.118133 0.767861 0.120000
0.147666 0.767861 0.120000
0.177199 0.767861 0.120000
0.206732 0.767861 0.120000
0.236265 0.767861 0.120000
0.265798 0.767861 0.120000
0.295331 0.767861 0.120000
0.324864 0.767861 0.120000
0.354398 0.767861 0.120000
0.383931 0.767861 0.120000
0.413464 0.767861 0.120000
0.442997 0.767861 0.120000
0.472530 0.767861 0.120000
0.502063 0.767861 0.120000
0.531596 0.767861 0.120000
0.561129 0.767861 0.120000
0.590663 0.767861 0.120000
0.620196 0.767861 0.120000
0.649729 0.767861 0.120000
0.679262 0.767861 0.120000
0.708795 0.767861 0.120000
0.738328 0.767861 0.120000
0.767861 0.767861 0.120000
0.797394 0.767861 0.120000
0.826928 0.767861 0.120000
0.856461 0.767861 0.120000
0.885994 0.767861 0.120000
0.915527 0.767861 0.120000
0.000000 0.797394 0.120000
0.029533 0.797394 0.120000
0.059066 0.797394 0.120000
0.088599 0.797394 0.120000
0.118133 0.797394 0.120000
0.147666 0.797394 0.120000
0.177199 0.797394 0.120000
0.206732 0.797394 0.120000
0.236265 0.797394 0.120000
0.265798 0.797394 0.120000
0.295331 0.797394 0.120000
0.324864 0.797394 0.120000
0.354398 0.797394 0.120000
0.383931 0.797394 0.120000
0.413464 0.797394 0.120000
0.442997 0.797394 0.120000
0.472530 0.797394 0.120000
