tox-frontend/public/cubicle-99.CUBE
#Created by: Adobe Photoshop Export Color Lookup Plugin
#Copyright: (C) Copyright 2017 RocketStock
TITLE "Cool"
#LUT size
LUT_3D_SIZE 5
#data domain
#LUT data points
DOMAIN_MIN 0.000000 0.000000 0.000000
DOMAIN_MAX 0.903226 0.903226 0.903226
0.000000 0.000000 0.120000
0.206732 0.000000 0.120000
0.413464 0.000000 0.120000
0.620196 0.000000 0.120000
0.826928 0.000000 0.120000
0.000000 0.206732 0.120000
0.206732 0.206732 0.120000
0.413464 0.206732 0.120000
0.620196 0.206732 0.120000
0.826928 0.206732 0.120000
0.000000 0.413464 0.120000
0.206732 0.413464 0.120000
0.413464 0.413464 0.120000
0.620196 0.413464 0.120000
0.826928 0.413464 0.120000
0.000000 0.620196 0.120000
0.206732 0.620196 0.120000
0.413464 0.620196 0.120000
0.620196 0.620196 0.120000
0.826928 0.620196 0.120000
0.000000 0.826928 0.120000
0.206732 0.826928 0.120000
0.413464 0.826928 0.120000
0.620196 0.826928 0.120000
0.826928 0.826928 0.120000
0.000000 0.000000 0.318710
0.206732 0.000000 0.318710
0.413464 0.000000 0.318710
0.620196 0.000000 0.318710
0.826928 0.000000 0.318710
0.000000 0.206732 0.318710
0.206732 0.206732 0.318710
0.413464 0.206732 0.318710
0.620196 0.206732 0.318710
0.826928 0.206732 0.318710
0.000000 0.413464 0.318710
0.206732 0.413464 0.318710
0.413464 0.413464 0.318710
0.620196 0.413464 0.318710
0.826928 0.413464 0.318710
0.000000 0.620196 0.318710
0.206732 0.620196 0.318710
0.413464 0.620196 0.318710
0.620196 0.620196 0.318710
0.826928 0.620196 0.318710
0.000000 0.826928 0.318710
0.206732 0.826928 0.318710
0.413464 0.826928 0.318710
0.620196 0.826928 0.318710
0.826928 0.826928 0.318710
0.000000 0.000000 0.517419
0.206732 0.000000 0.517419
0.413464 0.000000 0.517419
0.620196 0.000000 0.517419
0.826928 0.000000 0.517419
0.000000 0.206732 0.517419
0.206732 0.206732 0.517419
0.413464 0.206732 0.517419
0.620196 0.206732 0.517419
0.826928 0.206732 0.517419
0.000000 0.413464 0.517419
0.206732 0.413464 0.517419
0.413464 0.413464 0.517419
0.620196 0.413464 0.517419
0.826928 0.413464 0.517419
0.000000 0.620196 0.517419
0.206732 0.620196 0.517419
0.413464 0.620196 0.517419
0.620196 0.620196 0.517419
0.826928 0.620196 0.517419
0.000000 0.826928 0.517419
0.206732 0.826928 0.517419
0.413464 0.826928 0.517419
0.620196 0.826928 0.517419
0.826928 0.826928 0.517419
0.000000 0.000000 0.716129
0.206732 0.000000 0.716129
0.413464 0.000000 0.716129
0.620196 0.000000 0.716129
0.826928 0.000000 0.716129
0.000000 0.206732 0.716129
0.206732 0.206732 0.716129
0.413464 0.206732 0.716129
0.620196 0.206732 0.716129
0.826928 0.206732 0.716129
0.000000 0.413464 0.716129
0.206732 0.413464 0.716129
0.413464 0.413464 0.716129
0.620196 0.413464 0.716129
0.826928 0.413464 0.716129
0.000000 0.620196 0.716129
0.206732 0.620196 0.716129
0.413464 0.620196 0.716129
0.620196 0.620196 0.716129
0.826928 0.620196 0.716129
0.000000 0.826928 0.716129
0.206732 0.826928 0.716129
0.413464 0.826928 0.716129
0.620196 0.826928 0.716129
0.826928 0.826928 0.716129
0.000000 0.000000 0.914839
0.206732 0.000000 0.914839
0.413464 0.000000 0.914839
0.620196 0.000000 0.914839
0.826928 0.000000 0.914839
0.000000 0.206732 0.914839
0.206732 0.206732 0.914839
0.413464 0.206732 0.914839
0.620196 0.206732 0.914839
0.826928 0.206732 0.914839
0.000000 0.413464 0.914839
0.206732 0.413464 0.914839
0.413464 0.413464 0.914839
0.620196 0.413464 0.914839
0.826928 0.413464 0.914839
0.000000 0.620196 0.914839
0.206732 0.620196 0.914839
0.413464 0.620196 0.914839
0.620196 0.620196 0.914839
0.826928 0.620196 0.914839
0.000000 0.826928 0.914839
0.206732 0.826928 0.914839
0.413464 0.826928 0.914839
0.620196 0.826928 0.914839
0.826928 0.826928 0.914839
