tox-frontend/public/cubicle-99.CUBE
#Created by: Adobe Photoshop Export Color Lookup Plugin
#Copyright: (C) Copyright 2017 RocketStock
TITLE "Cool"
#LUT size
LUT_3D_SIZE 8
#data domain
#LUT data points
DOMAIN_MIN 0.000000 0.000000 0.000000
DOMAIN_MAX 0.903226 0.903226 0.903226
0.000000 0.000000 0.120000
0.118133 0.000000 0.120000
0.236265 0.000000 0.120000
0.354398 0.000000 0.120000
0.472530 0.000000 0.120000
0.590663 0.000000 0.120000
0.708795 0.000000 0.120000
0.826928 0.000000 0.120000
0.000000 0.118133 0.120000
0.118133 0.118133 0.120000
0.236265 0.118133 0.120000
0.354398 0.118133 0.120000
0.472530 0.118133 0.120000
0.590663 0.118133 0.120000
0.708795 0.118133 0.120000
0.826928 0.118133 0.120000
0.000000 0.236265 0.120000
0.118133 0.236265 0.120000
0.236265 0.236265 0.120000
0.354398 0.236265 0.120000
0.472530 0.236265 0.120000
0.590663 0.236265 0.120000
0.708795 0.236265 0.120000
0.826928 0.236265 0.120000
0.000000 0.354398 0.120000
0.118133 0.354398 0.120000
0.236265 0.354398 0.120000
0.354398 0.354398 0.120000
0.472530 0.354398 0.120000
0.590663 0.354398 0.120000
0.708795 0.354398 0.120000
0.826928 0.354398 0.120000
0.000000 0.472530 0.120000
0.118133 0.472530 0.120000
0.236265 0.472530 0.120000
0.354398 0.472530 0.120000
0.472530 0.472530 0.120000
0.590663 0.472530 0.120000
0.708795 0.472530 0.120000
0.826928 0.472530 0.120000
0.000000 0.590663 0.120000
0.118133 0.590663 0.120000
0.236265 0.590663 0.120000
0.354398 0.590663 0.120000
0.472530 0.590663 0.120000
0.590663 0.590663 0.120000
0.708795 0.590663 0.120000
0.826928 0.590663 0.120000
0.000000 0.708795 0.120000
0.118133 0.708795 0.120000
0.236265 0.708795 0.120000
0.354398 0.708795 0.120000
0.472530 0.708795 0.120000
0.590663 0.708795 0.120000
0.708795 0.708795 0.120000
0.826928 0.708795 0.120000
0.000000 0.826928 0.120000
0.118133 0.826928 0.120000
0.236265 0.826928 0.120000
0.354398 0.826928 0.120000
0.472530 0.826928 0.120000
0.590663 0.826928 0.120000
0.708795 0.826928 0.120000
0.826928 0.826928 0.120000
0.000000 0.000000 0.233548
0.118133 0.000000 0.233548
0.236265 0.000000 0.233548
0.354398 0.000000 0.233548
0.472530 0.000000 0.233548
0.590663 0.000000 0.233548
0.708795 0.000000 0.233548
0.826928 0.000000 0.233548
0.000000 0.118133 0.233548
0.118133 0.118133 0.233548
0.236265 0.118133 0.233548
0.354398 0.118133 0.233548
0.472530 0.118133 0.233548
0.590663 0.118133 0.233548
0.708795 0.118133 0.233548
0.826928 0.118133 0.233548
0.000000 0.236265 0.233548
0.118133 0.236265 0.233548
0.236265 0.236265 0.233548
0.354398 0.236265 0.233548
0.472530 0.236265 0.233548
0.590663 0.236265 0.233548
0.708795 0.236265 0.233548
0.826928 0.236265 0.233548
0.000000 0.354398 0.233548
0.118133 0.354398 0.233548
0.236265 0.354398 0.233548
0.354398 0.354398 0.233548
0.472530 0.354398 0.233548
0.590663 0.354398 0.233548
0.708795 0.354398 0.233548
0.826928 0.354398 0.233548
0.000000 0.472530 0.233548
0.118133 0.472530 0.233548
0.236265 0.472530 0.233548
0.354398 0.472530 0.233548
0.472530 0.472530 0.233548
0.590663 0.472530 0.233548
0.708795 0.472530 0.233548
0.826928 0.472530 0.233548
0.000000 0.590663 0.233548
0.118133 0.590663 0.233548
0.236265 0.590663 0.233548
0.354398 0.590663 0.233548
0.472530 0.590663 0.233548
0.590663 0.590663 0.233548
0.708795 0.590663 0.233548
0.826928 0.590663 0.233548
0.000000 0.708795 0.233548
0.118133 0.708795 0.233548
0.236265 0.708795 0.233548
0.354398 0.708795 0.233548
0.472530 0.708795 0.233548
0.590663 0.708795 0.233548
0.708795 0.708795 0.233548
0.826928 0.708795 0.233548
0.000000 0.826928 0.233548
0.118133 0.826928 0.233548
0.236265 0.826928 0.233548
0.354398 0.826928 0.233548
0.472530 0.826928 0.233548
0.590663 0.826928 0.233548
0.708795 0.826928 0.233548
0.826928 0.826928 0.233548
0.000000 0.000000 0.347097
0.118133 0.000000 0.347097
0.236265 0.000000 0.347097
0.354398 0.000000 0.347097
0.472530 0.000000 0.347097
0.590663 0.000000 0.347097
0.708795 0.000000 0.347097
0.826928 0.000000 0.347097
0.000000 0.118133 0.347097
0.118133 0.118133 0.347097
0.236265 0.118133 0.347097
0.354398 0.118133 0.347097
0.472530 0.118133 0.347097
0.590663 0.118133 0.347097
0.708795 0.118133 0.347097
0.826928 0.118133 0.347097
0.000000 0.236265 0.347097
0.118133 0.236265 0.347097
0.236265 0.236265 0.347097
0.354398 0.236265 0.347097
0.472530 0.236265 0.347097
0.590663 0.236265 0.347097
0.708795 0.236265 0.347097
0.826928 0.236265 0.347097
0.000000 0.354398 0.347097
0.118133 0.354398 0.347097
0.236265 0.354398 0.347097
0.354398 0.354398 0.347097
0.472530 0.354398 0.347097
0.590663 0.354398 0.347097
0.708795 0.354398 0.347097
0.826928 0.354398 0.347097
0.000000 0.472530 0.347097
0.118133 0.472530 0.347097
0.236265 0.472530 0.347097
0.354398 0.472530 0.347097
0.472530 0.472530 0.347097
0.590663 0.472530 0.347097
0.708795 0.472530 0.347097
0.826928 0.472530 0.347097
0.000000 0.590663 0.347097
0.118133 0.590663 0.347097
0.236265 0.590663 0.347097
0.354398 0.590663 0.347097
0.472530 0.590663 0.347097
0.590663 0.590663 0.347097
0.708795 0.590663 0.347097
0.826928 0.590663 0.347097
0.000000 0.708795 0.347097
0.118133 0.708795 0.347097
0.236265 0.708795 0.347097
0.354398 0.708795 0.347097
0.472530 0.708795 0.347097
0.590663 0.708795 0.347097
0.708795 0.708795 0.347097
0.826928 0.708795 0.347097
0.000000 0.826928 0.347097
0.118133 0.826928 0.347097
0.236265 0.826928 0.347097
0.354398 0.826928 0.347097
0.472530 0.826928 0.347097
0.590663 0.826928 0.347097
0.708795 0.826928 0.347097
0.826928 0.826928 0.347097
0.000000 0.000000 0.460645
0.118133 0.000000 0.460645
0.236265 0.000000 0.460645
0.354398 0.000000 0.460645
0.472530 0.000000 0.460645
0.590663 0.000000 0.460645
0.708795 0.000000 0.460645
0.826928 0.000000 0.460645
0.000000 0.118133 0.460645
0.118133 0.118133 0.460645
0.236265 0.118133 0.460645
0.354398 0.118133 0.460645
0.472530 0.118133 0.460645
0.590663 0.118133 0.460645
0.708795 0.118133 0.460645
0.826928 0.118133 0.460645
0.000000 0.236265 0.460645
0.118133 0.236265 0.460645
0.236265 0.236265 0.460645
0.354398 0.236265 0.460645
0.472530 0.236265 0.460645
0.590663 0.236265 0.460645
0.708795 0.236265 0.460645
0.826928 0.236265 0.460645
0.000000 0.354398 0.460645
0.118133 0.354398 0.460645
0.236265 0.354398 0.460645
0.354398 0.354398 0.460645
0.472530 0.354398 0.460645
0.590663 0.354398 0.460645
0.708795 0.354398 0.460645
0.826928 0.354398 0.460645
0.000000 0.472530 0.460645
0.118133 0.472530 0.460645
0.236265 0.472530 0.460645
0.354398 0.472530 0.460645
0.472530 0.472530 0.460645
0.590663 0.472530 0.460645
0.708795 0.472530 0.460645
0.826928 0.472530 0.460645
0.000000 0.590663 0.460645
0.118133 0.590663 0.460645
0.236265 0.590663 0.460645
0.354398 0.590663 0.460645
0.472530 0.590663 0.460645
0.590663 0.590663 0.460645
0.708795 0.590663 0.460645
0.826928 0.590663 0.460645
0.000000 0.708795 0.460645
0.118133 0.708795 0.460645
0.236265 0.708795 0.460645
0.354398 0.708795 0.460645
0.472530 0.708795 0.460645
0.590663 0.708795 0.460645
0.708795 0.708795 0.460645
0.826928 0.708795 0.460645
0.000000 0.826928 0.460645
0.118133 0.826928 0.460645
0.236265 0.826928 0.460645
0.354398 0.826928 0.460645
0.472530 0.826928 0.460645
0.590663 0.826928 0.460645
0.708795 0.826928 0.460645
0.826928 0.826928 0.460645
0.000000 0.000000 0.574194
0.118133 0.000000 0.574194
0.236265 0.000000 0.574194
0.354398 0.000000 0.574194
0.472530 0.000000 0.574194
0.590663 0.000000 0.574194
0.708795 0.000000 0.574194
0.826928 0.000000 0.574194
0.000000 0.118133 0.574194
0.118133 0.118133 0.574194
0.236265 0.118133 0.574194
0.354398 0.118133 0.574194
0.472530 0.118133 0.574194
0.590663 0.118133 0.574194
0.708795 0.118133 0.574194
0.826928 0.118133 0.574194
0.000000 0.236265 0.574194
0.118133 0.236265 0.574194
0.236265 0.236265 0.574194
0.354398 0.236265 0.574194
0.472530 0.236265 0.574194
0.590663 0.236265 0.574194
0.708795 0.236265 0.574194
0.826928 0.236265 0.574194
0.000000 0.354398 0.574194
0.118133 0.354398 0.574194
0.236265 0.354398 0.574194
0.354398 0.354398 0.574194
0.472530 0.354398 0.574194
0.590663 0.354398 0.574194
0.708795 0.354398 0.574194
0.826928 0.354398 0.574194
0.000000 0.472530 0.574194
0.118133 0.472530 0.574194
0.236265 0.472530 0.574194
0.354398 0.472530 0.574194
0.472530 0.472530 0.574194
0.590663 0.472530 0.574194
0.708795 0.472530 0.574194
0.826928 0.472530 0.574194
0.000000 0.590663 0.574194
0.118133 0.590663 0.574194
0.236265 0.590663 0.574194
0.354398 0.590663 0.574194
0.472530 0.590663 0.574194
0.590663 0.590663 0.574194
0.708795 0.590663 0.574194
0.826928 0.590663 0.574194
0.000000 0.708795 0.574194
0.118133 0.708795 0.574194
0.236265 0.708795 0.574194
0.354398 0.708795 0.574194
0.472530 0.708795 0.574194
0.590663 0.708795 0.574194
0.708795 0.708795 0.574194
0.826928 0.708795 0.574194
0.000000 0.826928 0.574194
0.118133 0.826928 0.574194
0.236265 0.826928 0.574194
0.354398 0.826928 0.574194
0.472530 0.826928 0.574194
0.590663 0.826928 0.574194
0.708795 0.826928 0.574194
0.826928 0.826928 0.574194
0.000000 0.000000 0.687742
0.118133 0.000000 0.687742
0.236265 0.000000 0.687742
0.354398 0.000000 0.687742
0.472530 0.000000 0.687742
0.590663 0.000000 0.687742
0.708795 0.000000 0.687742
0.826928 0.000000 0.687742
0.000000 0.118133 0.687742
0.118133 0.118133 0.687742
0.236265 0.118133 0.687742
0.354398 0.118133 0.687742
0.472530 0.118133 0.687742
0.590663 0.118133 0.687742
0.708795 0.118133 0.687742
0.826928 0.118133 0.687742
0.000000 0.236265 0.687742
0.118133 0.236265 0.687742
0.236265 0.236265 0.687742
0.354398 0.236265 0.687742
0.472530 0.236265 0.687742
0.590663 0.236265 0.687742
0.708795 0.236265 0.687742
0.826928 0.236265 0.687742
0.000000 0.354398 0.687742
0.118133 0.354398 0.687742
0.236265 0.354398 0.687742
0.354398 0.354398 0.687742
0.472530 0.354398 0.687742
0.590663 0.354398 0.687742
0.708795 0.354398 0.687742
0.826928 0.354398 0.687742
0.000000 0.472530 0.687742
0.118133 0.472530 0.687742
0.236265 0.472530 0.687742
0.354398 0.472530 0.687742
0.472530 0.472530 0.687742
0.590663 0.472530 0.687742
0.708795 0.472530 0.687742
0.826928 0.472530 0.687742
0.000000 0.590663 0.687742
0.118133 0.590663 0.687742
0.236265 0.590663 0.687742
0.354398 0.590663 0.687742
0.472530 0.590663 0.687742
0.590663 0.590663 0.687742
0.708795 0.590663 0.687742
0.826928 0.590663 0.687742
0.000000 0.708795 0.687742
0.118133 0.708795 0.687742
0.236265 0.708795 0.687742
0.354398 0.708795 0.687742
0.472530 0.708795 0.687742
0.590663 0.708795 0.687742
0.708795 0.708795 0.687742
0.826928 0.708795 0.687742
0.000000 0.826928 0.687742
0.118133 0.826928 0.687742
0.236265 0.826928 0.687742
0.354398 0.826928 0.687742
0.472530 0.826928 0.687742
0.590663 0.826928 0.687742
0.708795 0.826928 0.687742
0.826928 0.826928 0.687742
0.000000 0.000000 0.801290
0.118133 0.000000 0.801290
0.236265 0.000000 0.801290
0.354398 0.000000 0.801290
0.472530 0.000000 0.801290
0.590663 0.000000 0.801290
0.708795 0.000000 0.801290
0.826928 0.000000 0.801290
0.000000 0.118133 0.801290
0.118133 0.118133 0.801290
0.236265 0.118133 0.801290
0.354398 0.118133 0.801290
0.472530 0.118133 0.801290
0.590663 0.118133 0.801290
0.708795 0.118133 0.801290
0.826928 0.118133 0.801290
0.000000 0.236265 0.801290
0.118133 0.236265 0.801290
0.236265 0.236265 0.801290
0.354398 0.236265 0.801290
0.472530 0.236265 0.801290
0.590663 0.236265 0.801290
0.708795 0.236265 0.801290
0.826928 0.236265 0.801290
0.000000 0.354398 0.801290
0.118133 0.354398 0.801290
0.236265 0.354398 0.801290
0.354398 0.354398 0.801290
0.472530 0.354398 0.801290
0.590663 0.354398 0.801290
0.708795 0.354398 0.801290
0.826928 0.354398 0.801290
0.000000 0.472530 0.801290
0.118133 0.472530 0.801290
0.236265 0.472530 0.801290
0.354398 0.472530 0.801290
0.472530 0.472530 0.801290
0.590663 0.472530 0.801290
0.708795 0.472530 0.801290
0.826928 0.472530 0.801290
0.000000 0.590663 0.801290
0.118133 0.590663 0.801290
0.236265 0.590663 0.801290
0.354398 0.590663 0.801290
0.472530 0.590663 0.801290
0.590663 0.590663 0.801290
0.708795 0.590663 0.801290
0.826928 0.590663 0.801290
0.000000 0.708795 0.801290
0.118133 0.708795 0.801290
0.236265 0.708795 0.801290
0.354398 0.708795 0.801290
0.472530 0.708795 0.801290
0.590663 0.708795 0.801290
0.708795 0.708795 0.801290
0.826928 0.708795 0.801290
0.000000 0.826928 0.801290
0.118133 0.826928 0.801290
0.236265 0.826928 0.801290
0.354398 0.826928 0.801290
0.472530 0.826928 0.801290
0.590663 0.826928 0.801290
0.708795 0.826928 0.801290
0.826928 0.826928 0.801290
0.000000 0.000000 0.914839
0.118133 0.000000 0.914839
0.236265 0.000000 0.914839
0.354398 0.000000 0.914839
0.472530 0.000000 0.914839
0.590663 0.000000 0.914839
0.708795 0.000000 0.914839
0.826928 0.000000 0.914839
0.000000 0.118133 0.914839
0.118133 0.118133 0.914839
0.236265 0.118133 0.914839
0.354398 0.118133 0.914839
0.472530 0.118133 0.914839
0.590663 0.118133 0.914839
0.708795 0.118133 0.914839
0.826928 0.118133 0.914839
0.000000 0.236265 0.914839
0.118133 0.236265 0.914839
0.236265 0.236265 0.914839
0.354398 0.236265 0.914839
0.472530 0.236265 0.914839
0.590663 0.236265 0.914839
0.708795 0.236265 0.914839
0.826928 0.236265 0.914839
0.000000 0.354398 0.914839
0.118133 0.354398 0.914839
0.236265 0.354398 0.914839
0.354398 0.354398 0.914839
0.472530 0.354398 0.914839
0.590663 0.354398 0.914839
0.708795 0.354398 0.914839
0.826928 0.354398 0.914839
0.000000 0.472530 0.914839
0.118133 0.472530 0.914839
0.236265 0.472530 0.914839
0.354398 0.472530 0.914839
0.472530 0.472530 0.914839
0.590663 0.472530 0.914839
0.708795 0.472530 0.914839
0.826928 0.472530 0.914839
0.000000 0.590663 0.914839
0.118133 0.590663 0.914839
0.236265 0.590663 0.914839
0.354398 0.590663 0.914839
0.472530 0.590663 0.914839
0.590663 0.590663 0.914839
0.708795 0.590663 0.914839
0.826928 0.590663 0.914839
0.000000 0.708795 0.914839
0.118133 0.708795 0.914839
0.236265 0.708795 0.914839
0.354398 0.708795 0.914839
0.472530 0.708795 0.914839
0.590663 0.708795 0.914839
0.708795 0.708795 0.914839
0.826928 0.708795 0.914839
0.000000 0.826928 0.914839
0.118133 0.826928 0.914839
0.236265 0.826928 0.914839
0.354398 0.826928 0.914839
0.472530 0.826928 0.914839
0.590663 0.826928 0.914839
0.708795 0.826928 0.914839
0.826928 0.826928 0.914839
